X:186
%%annotationfont Times-Roman 12
T:Cantie's Brig 
C:Joe Buchanan's Scottish Tome - Page 273.2
I:273 2
C:F. Moy
R:Jig
Z:Carl Allison
L:1/8
M:6/8
K:A
E | A2 A c2 E | FAA A2 c | d2 f ecA | GAB EFG |
A2 A c2 E | FAA A2 f | ecA BAG | A3- ABc |
d2 z !tenuto!"^<"f2 d | cde cBA | B2 G E2 d | cde cBA |
d2 z !tenuto!"^<"f2 d | cde "^<".a2 c/d/ | ecA BAG | A3- ABc |
d3 z !tenuto!"^<"f2 d | cde cBA | B2 G2 E2 d | cde cBA |
d2 z !tenuto!"^<"f2 d | cde cBA | Beg fed | e3- efg |
"^<"a2 f !tenuto!"^<"a2 f | eAA A2 c | d2 f ecA | GAB EFG |
A2 A c2 E | FAA A2 f | ecA BAG | A3- A2 |]

